X:1
T:Title
%%score { ( 1 3 ) | ( 2 4 ) }
L:1/8
Q:1/4=90
M:6/8
K:Ab
V:1 treble nm="Grand Piano"
V:3 treble 
V:2 bass 
V:4 bass 
V:1
 [CE][CE][CE] [CA]2 [Ec] | [Fc]3 .[FB]3 | [Fd][Fd][Fd] [DG]2 [DG] | [CA]6 | ccc B2 e | %5
w: Geo.~C.~Stebbins * * * *|||||
 [Ae]3 .[A=d]3 | fff c2 =d | [Ge]6 | e3 e3 | e=de f2 e | A2 A cBF | B6 | [Ec]2 [Ec] dc[EB] | %13
w: ||||||||
 e2- [_Ge] .[Ff]3 | A3 cB[G,DE] | [A,CA]6 |] %16
w: |||
V:2
 [A,,A,][A,,A,][A,,A,] [A,,E,]2 [A,,A,] | [D,A,]3 .[D,A,]3 | [B,,B,][B,,B,][B,,B,] [E,B,]2 [E,B,] | %3
 [A,,A,]6 | [A,E][A,E][A,E] [G,B,E]2 [G,B,E] | [F,B,]3 .[F,B,]3 | %6
 [B,=DA][B,DA][B,DA] [B,DA]2 [B,A] | [E,B,]6 | [A,CA]3 [B,DG]3 | [CEA][_CFA][=CEA] [DA]2 [CEA] | %10
 [CE]2[K:bass] [A,CE] [F,B,=D]2 [=D,A,] | [E,G,E]6 | [A,,A,]2 [A,,A,] [B,,G,]2 [B,,G,] | %13
 [C,A,]3 .[D,A,]3 | [E,CE]3 EDE, | A,,6 |] %16
V:3
 x6 | x6 | x6 | x6 | x6 | x6 | x6 | x6 | x6 | x6 | x6 | x6 | z3 .E3 | .A3 z3 | x6 | x6 |] %16
V:4
 x6 | x6 | x6 | x6 | x6 | x6 | x6 | x6 | x6 | x6 | x2[K:bass] x4 | x6 | x6 | x6 | z3 .[E,G,]3 | %15
 x6 |] %16

